X: 43
T: Missa De feria / Credo
N: Derived from Rue1009c-Missa_De_feria-Credo.krn
C: Pierre de la Rue
%%abc-version 2.0
%%abcx-abcm2ps-target-version 5.9.1 (29 Sep 2008)
%%abc-creator hum2abc beta
%%abcx-conversion-date 2019/02/17 08:01:11
%%abc-edited-by Jesse Rodin
%%abc-edited-by Chris Gage 01-15-2013
%%abcx-initial-encoding-date 2013/07/17/
%%humdrum-veritas 1130003188
%%humdrum-veritas-data 2678257376
%%linebreak <none>
%%barnumbers 0
L: 1/4
M: 2/1
Q: 1/2=120
V: 1 clef=treble
V: 2 clef=treble-8
V: 3 clef=treble-8
V: 4 clef=treble-8
V: 5 clef=bass
K: C
[V:1] A8 | 
[V:2] d8 | 
[V:3] z8 | 
[V:4] z4A4 | 
[V:5] D,8 | 
[V:1] F8 | 
[V:2] d4d4 | 
[V:3] z8 | 
[V:4] _B4A4 | 
[V:5] D,8 | 
[V:1] F4G4 | 
[V:2] c2c3BG2 | 
[V:3] z4e4 | 
[V:4] A4G2G2- | 
[V:5] F,4C,2E,2 | 
[V:1] A4c4- | 
[V:2] d4z2G2 | 
[V:3] f4e4 | 
[V:4] G2F2G4 | 
[V:5] D,4C,4 | 
[V:1] c2BAB2A2- | 
[V:2] A2G3FF2 | 
[V:3] e4d2d2- | 
[V:4] z8 | 
[V:5] C,4D,4 | 
[V:1] A2G3^FF2 | 
[V:2] G4A4 | 
[V:3] d2c2d4 | 
[V:4] z8 | 
[V:5] E,4D,4 | 
[V:1] G2G2G2G2 | 
[V:2] G2G4FE | 
[V:3] z8 | 
[V:4] z4E4 | 
[V:5] G,,2C,4C,2 | 
[V:1] F2A2B2d2- | 
[V:2] D2F2EDD2- | 
[V:3] z8 | 
[V:4] F4G2G2- | 
[V:5] D,3C,B,,2G,,2 | 
[V:1] dcA2B4 | 
[V:2] D2C2D4 | 
[V:3] z4B4 | 
[V:4] G2^F2G4 | 
[V:5] A,,4G,,4 | 
[V:1] z8 | 
[V:2] z8 | 
[V:3] c4d2d2- | 
[V:4] A4G2F2 | 
[V:5] z8 | 
[V:1] z8 | 
[V:2] z8 | 
[V:3] d2^c2d4 | 
[V:4] E4D4 | 
[V:5] z8 | 
[V:1] z8 | 
[V:2] z8 | 
[V:3] e4d2c2 | 
[V:4] A4_B2A2 | 
[V:5] z8 | 
[V:1] z8 | 
[V:2] z2d2d2d2 | 
[V:3] B4A4 | 
[V:4] A2G4^F2 | 
[V:5] z4D,4 | 
[V:1] z8 | 
[V:2] B4A2B2- | 
[V:3] e4f2e2 | 
[V:4] G4z4 | 
[V:5] E,2G,2F,2G,2- | 
[V:1] G4G4 | 
[V:2] BAGFE4 | 
[V:3] e2d4^c2 | 
[V:4] E2F2G4 | 
[V:5] G,F,E,D,E,4 | 
[V:1] F4G4 | 
[V:2] F4D4 | 
[V:3] d4z4 | 
[V:4] A4G2F2 | 
[V:5] D,4G,,4 | 
[V:1] G2G2F4 | 
[V:2] z2G2D2D2 | 
[V:3] B2c2d4 | 
[V:4] E4F4 | 
[V:5] z8 | 
[V:1] G2A2B2c2 | 
[V:2] G6FE | 
[V:3] e4d2c2 | 
[V:4] E2F2G4 | 
[V:5] C,4G,,2A,,2 | 
[V:1] d4c2A2 | 
[V:2] D2D2E4 | 
[V:3] B4c4 | 
[V:4] G4A4 | 
[V:5] B,,4A,,4 | 
[V:1] B2A3GG2 | 
[V:2] z4G4 | 
[V:3] B2c2d4 | 
[V:4] z2A2_B4 | 
[V:5] z4G,,4 | 
[V:1] A8 | 
[V:2] F4E4 | 
[V:3] d4e4 | 
[V:4] A4A4 | 
[V:5] D,4A,,4 | 
[V:1] z4A4 | 
[V:2] E4z2D2 | 
[V:3] z2e2f4 | 
[V:4] G4F3G | 
[V:5] C,4D,4 | 
[V:1] c4c4 | 
[V:2] E3FG2E2 | 
[V:3] e4e4 | 
[V:4] A2G2E2A2- | 
[V:5] A,,2C,4C,2 | 
[V:1] A2B2c4 | 
[V:2] F2D2A4 | 
[V:3] d4c3d | 
[V:4] A2G4^F2 | 
[V:5] D,2B,,2A,,4 | 
[V:1] B3cd2c2- | 
[V:2] z2D2D2G2- | 
[V:3] e2d2B2e2- | 
[V:4] G8 | 
[V:5] G,,3A,,B,,2C,2- | 
[V:1] c2BAG2E2 | 
[V:2] GEF2G4 | 
[V:3] e2d4^c2 | 
[V:4] z8 | 
[V:5] C,2D,2E,4 | 
[V:1] F2G4^F2 | 
[V:2] A3GA4 | 
[V:3] d8 | 
[V:4] z8 | 
[V:5] D,8 | 
[V:1] G4z2G2 | 
[V:2] G8 | 
[V:3] z8 | 
[V:4] z8 | 
[V:5] G,,8 | 
[V:1] G3FEDF2 | 
[V:2] z2G4F2 | 
[V:3] z8 | 
[V:4] z8 | 
[V:5] z2C,2C,2D,2 | 
[V:1] E2D3^CC2 | 
[V:2] G2F2G4 | 
[V:3] z8 | 
[V:4] z8 | 
[V:5] C,2D,2E,4 | 
[V:1] D4z4 | 
[V:2] A4A4 | 
[V:3] z8 | 
[V:4] z8 | 
[V:5] D,4F,4 | 
[V:1] z2D2F3G | 
[V:2] _B4A4 | 
[V:3] z8 | 
[V:4] z8 | 
[V:5] G,2G,2F,2D,2- | 
[V:1] A2B2c3B | 
[V:2] F2G2A3G | 
[V:3] z8 | 
[V:4] z8 | 
[V:5] D,2C,B,,A,,2F,2- | 
[V:1] A2G2F4 | 
[V:2] F2E2F4 | 
[V:3] z8 | 
[V:4] z8 | 
[V:5] F,2C,2D,4 | 
[V:1] E2c2c3B | 
[V:2] G2A2G2c2- | 
[V:3] z8 | 
[V:4] z8 | 
[V:5] C,4z2C,2 | 
[V:1] A2G2F4 | 
[V:2] c2c3BB2 | 
[V:3] z8 | 
[V:4] E4F4 | 
[V:5] C,4D,4 | 
[V:1] E4z2G2 | 
[V:2] c8 | 
[V:3] z8 | 
[V:4] G4G4 | 
[V:5] C,8 | 
[V:1] G2G2E4 | 
[V:2] z8 | 
[V:3] B4c4 | 
[V:4] G8 | 
[V:5] G,,4C,4 | 
[V:1] D4z2d2 | 
[V:2] z2B2B2B2 | 
[V:3] d4d4 | 
[V:4] z4G4 | 
[V:5] B,,2G,,3A,,B,,C, | 
[V:1] d2d2dcBA | 
[V:2] A4F4 | 
[V:3] d8 | 
[V:4] F4A4 | 
[V:5] D,8 | 
[V:1] B4A4 | 
[V:2] G2D3EFG | 
[V:3] z4d4 | 
[V:4] G4F4 | 
[V:5] G,,4D,4 | 
[V:1] A2c3BAG | 
[V:2] A8- | 
[V:3] c4e4 | 
[V:4] E8 | 
[V:5] A,,2A,,2C,4 | 
[V:1] F2D2E2C2 | 
[V:2] A8 | 
[V:3] d4c4 | 
[V:4] F4E2F2 | 
[V:5] D,4A,,4 | 
[V:1] E2F2D4 | 
[V:2] z8 | 
[V:3] B8 | 
[V:4] G2A3GG2 | 
[V:5] z8 | 
[V:1] C4z4 | 
[V:2] F4G2A2- | 
[V:3] c4B2c2 | 
[V:4] A4z2A2 | 
[V:5] z8 | 
[V:1] z8 | 
[V:2] AGE2F4 | 
[V:3] d2e3dd2 | 
[V:4] F2G2A4 | 
[V:5] z8 | 
[V:1] G6G2 | 
[V:2] E8 | 
[V:3] e4z2e2 | 
[V:4] G4z2G2 | 
[V:5] C,4C,4 | 
[V:1] F4E2G2 | 
[V:2] z8 | 
[V:3] c2d2e4 | 
[V:4] A2A2c3B | 
[V:5] F,4C,4 | 
[V:1] F2G2A4 | 
[V:2] z8 | 
[V:3] d4z2d2 | 
[V:4] AGG4^F2 | 
[V:5] D,2G,,2D,4 | 
[V:1] G3AB2c2- | 
[V:2] z8 | 
[V:3] e2e2g3f | 
[V:4] G2G2G2G2 | 
[V:5] z2G,3F,E,D, | 
[V:1] c2BAG4 | 
[V:2] z8 | 
[V:3] edd4^c2 | 
[V:4] G2F2G2G2 | 
[V:5] C,2D,2E,4 | 
[V:1] F2A2A2dc | 
[V:2] z8 | 
[V:3] d2d2d2d2 | 
[V:4] A8 | 
[V:5] D,8 | 
[V:1] BAA4G2 | 
[V:2] A4_B4 | 
[V:3] d2c2d2d2 | 
[V:4] z8 | 
[V:5] z8 | 
[V:1] A4z2A2 | 
[V:2] A8 | 
[V:3] e8 | 
[V:4] z8 | 
[V:5] A,,4A,,2D,2- | 
[V:1] A2c4BA | 
[V:2] F4F4 | 
[V:3] z8 | 
[V:4] z8 | 
[V:5] D,2C,B,,A,,4 | 
[V:1] B2G2d4 | 
[V:2] G8 | 
[V:3] z8 | 
[V:4] z8 | 
[V:5] G,,4B,,4 | 
[V:1] c3BAGA2- | 
[V:2] A4F4 | 
[V:3] z8 | 
[V:4] z8 | 
[V:5] A,,2C,2D,2F,2- | 
[V:1] A2G4^F2 | 
[V:2] G2B2A4 | 
[V:3] z8 | 
[V:4] z8 | 
[V:5] F,E,G,2D,4 | 
[V:1] G4z4 | 
[V:2] G3ABcd2- | 
[V:3] z8 | 
[V:4] z8 | 
[V:5] G,,2G,3E,F,2- | 
[V:1] z8 | 
[V:2] d2c3BB2 | 
[V:3] z8 | 
[V:4] z8 | 
[V:5] F,E,D,C,D,4 | 
[V:1] G4G2c2- | 
[V:2] c8- | 
[V:3] z8 | 
[V:4] E8 | 
[V:5] C,4C,4 | 
[V:1] c2c2A4 | 
[V:2] c8 | 
[V:3] z8 | 
[V:4] F8 | 
[V:5] A,,4A,,4 | 
[V:1] B3cd2G2- | 
[V:2] z4d4 | 
[V:3] B8 | 
[V:4] G8 | 
[V:5] G,,8 | 
[V:1] G2^FEF4 | 
[V:2] c4A4 | 
[V:3] c8 | 
[V:4] A8 | 
[V:5] z8 | 
[V:1] G4z2A2 | 
[V:2] B4A2A2- | 
[V:3] d8 | 
[V:4] G4F4 | 
[V:5] G,,4D,4 | 
[V:1] A2c3BAG | 
[V:2] A2GFE2A2- | 
[V:3] e8 | 
[V:4] E8 | 
[V:5] A,,4C,4 | 
[V:1] F4A4 | 
[V:2] A2B2c2A2 | 
[V:3] d4c4 | 
[V:4] z2F2E2F2 | 
[V:5] D,3C,A,,4 | 
[V:1] B4G4- | 
[V:2] d4z2G2 | 
[V:3] B8 | 
[V:4] G4G4 | 
[V:5] G,,2G,3F,E,D, | 
[V:1] G4G4 | 
[V:2] G2G2E4 | 
[V:3] z2c2B2c2 | 
[V:4] G4G4 | 
[V:5] C,2C,2E,4 | 
[V:1] F3GA2D2- | 
[V:2] F2D2F3G | 
[V:3] d4d4 | 
[V:4] A8 | 
[V:5] D,8- | 
[V:1] D2A2B2d2- | 
[V:2] A2D4A2 | 
[V:3] d4d4 | 
[V:4] z4F4 | 
[V:5] D,8 | 
[V:1] d2B2c3B | 
[V:2] B3AF3G | 
[V:3] e8 | 
[V:4] G4A2c2- | 
[V:5] z8 | 
[V:1] AGG4^F2 | 
[V:2] A2B2c4 | 
[V:3] z4c4 | 
[V:4] cBAGA4 | 
[V:5] z8 | 
[V:1] G8- | 
[V:2] B4B4 | 
[V:3] d4e2g2- | 
[V:4] G8- | 
[V:5] z2G,2G,2E,2- | 
[V:1] G8- | 
[V:2] c8 | 
[V:3] gfede4 | 
[V:4] G8- | 
[V:5] E,D,C,B,,C,2C,2 | 
[V:1] G8 ||  
[V:2] B8 ||  
[V:3] d8 ||  
[V:4] G8 ||  
[V:5] G,,8 ||  
[V:1]  [K:C] [K:clef=treble][M:2/1]G4E2F2 | 
[V:2]  [K:C] [K:clef=treble-8][M:2/1]z8 | 
[V:3]  [K:C] [K:clef=treble-8][M:2/1]z8 | 
[V:4]  [K:C] [K:clef=treble-8][M:2/1]z8 | 
[V:5]  [K:C] [K:clef=bass][M:2/1]G,8 | 
[V:1] G4A4 | 
[V:2] z8 | 
[V:3] z8 | 
[V:4] z8 | 
[V:5] E,4F,4 | 
[V:1] B8 | 
[V:2] d4B2c2 | 
[V:3] z8 | 
[V:4] z8 | 
[V:5] G,4G,4 | 
[V:1] B4B4 | 
[V:2] d4e4 | 
[V:3] z8 | 
[V:4] z8 | 
[V:5] G,8 | 
[V:1] A6F2 | 
[V:2] f6ed | 
[V:3] z8 | 
[V:4] z8 | 
[V:5] F,4D,4 | 
[V:1] G4A4 | 
[V:2] c2BA3d2- | 
[V:3] z8 | 
[V:4] z8 | 
[V:5] E,4F,4 | 
[V:1] B8 | 
[V:2] dcBAB4 | 
[V:3] z8 | 
[V:4] z8 | 
[V:5] G,8 | 
[V:1] c4z2c2- | 
[V:2] A2c4A2- | 
[V:3] z8 | 
[V:4] z8 | 
[V:5] A,4A,,3B,, | 
[V:1] c2A2B2d2- | 
[V:2] A2GFG4 | 
[V:3] z8 | 
[V:4] z8 | 
[V:5] C,2D,2B,,4 | 
[V:1] dcc4A2- | 
[V:2] A2F2E4 | 
[V:3] z8 | 
[V:4] A8 | 
[V:5] A,,8 | 
[V:1] A2GFG4 | 
[V:2] z4d4 | 
[V:3] z8 | 
[V:4] _B8 | 
[V:5] z8 | 
[V:1] A8 | 
[V:2] c4c4 | 
[V:3] e8 | 
[V:4] A4A4 | 
[V:5] A,,8 | 
[V:1] z4A4- | 
[V:2] d4A3B | 
[V:3] f8 | 
[V:4] F6G2 | 
[V:5] D,8 | 
[V:1] A4c4- | 
[V:2] c8 | 
[V:3] e4e4 | 
[V:4] A4G4- | 
[V:5] C,8 | 
[V:1] c4c4 | 
[V:2] c4A4 | 
[V:3] c6d2 | 
[V:4] G4F4 | 
[V:5] A,,8 | 
[V:1] B6AG | 
[V:2] B2G4FE | 
[V:3] e4d4- | 
[V:4] G8 | 
[V:5] G,,8 | 
[V:1] B2A4G2- | 
[V:2] D2F2G2E2 | 
[V:3] d4c4 | 
[V:4] z8 | 
[V:5] D,4E,4 | 
[V:1] G2^FEF4 | 
[V:2] F2G2A4 | 
[V:3] d8 | 
[V:4] A8 | 
[V:5] D,8 | 
[V:1] G4z2G2 | 
[V:2] G8 | 
[V:3] z8 | 
[V:4] _B8 | 
[V:5] G,,8 | 
[V:1] A4c4 | 
[V:2] z4C4 | 
[V:3] e8 | 
[V:4] A4A4 | 
[V:5] z4A,,4 | 
[V:1] B2A2d4 | 
[V:2] F4F2A2- | 
[V:3] f8 | 
[V:4] z4D4 | 
[V:5] D,8 | 
[V:1] c3BG2A2- | 
[V:2] A2c4A2 | 
[V:3] e4e4 | 
[V:4] E3CE2F2 | 
[V:5] A,,4C,4 | 
[V:1] A2G3^FF2 | 
[V:2] d8 | 
[V:3] z4A4 | 
[V:4] G4A4 | 
[V:5] B,,2G,,2D,4 | 
[V:1] G8- | 
[V:2] d8 | 
[V:3] B3GB2c2 | 
[V:4] G8- | 
[V:5] G,,8- | 
[V:1] G8- | 
[V:2] B8- | 
[V:3] d4e4 | 
[V:4] G8- | 
[V:5] G,,8- | 
[V:1] G8 ||  
[V:2] B8 ||  
[V:3] d8 ||  
[V:4] G8 ||  
[V:5] G,,8 ||  
[V:1]  [K:C] [K:clef=treble][M:2/1]z8 | 
[V:2]  [K:C] [K:clef=treble-8][M:2/1]z8 | 
[V:3]  [K:C] [K:clef=treble-8][M:2/1]d4e4 | 
[V:4]  [K:C] [K:clef=treble-8][M:2/1]z8 | 
[V:5]  [K:C] [K:clef=bass][M:2/1]z8 | 
[V:1] z8 | 
[V:2] z8 | 
[V:3] d4B4- | 
[V:4] z8 | 
[V:5] z8 | 
[V:1] z8 | 
[V:2] z8 | 
[V:3] B4c2c2 | 
[V:4] G4A4 | 
[V:5] z8 | 
[V:1] z8 | 
[V:2] z8 | 
[V:3] B8 | 
[V:4] G4E4- | 
[V:5] z8 | 
[V:1] z4A4 | 
[V:2] z8 | 
[V:3] c2e4d2 | 
[V:4] E4F2F2 | 
[V:5] z8 | 
[V:1] G2G2E2G2 | 
[V:2] z8 | 
[V:3] e8 | 
[V:4] E8 | 
[V:5] z8 | 
[V:1] AGFED4 | 
[V:2] z8 | 
[V:3] z8 | 
[V:4] F2A4G2 | 
[V:5] A,,4_B,,4 | 
[V:1] C8 | 
[V:2] z8 | 
[V:3] z8 | 
[V:4] A8 | 
[V:5] A,,4A,,4 | 
[V:1] C8 | 
[V:2] A8 | 
[V:3] z8 | 
[V:4] z8 | 
[V:5] F,,2G,,2A,,4 | 
[V:1] D8 | 
[V:2] _B8 | 
[V:3] z8 | 
[V:4] z8 | 
[V:5] G,,8 | 
[V:1] C3DE2F2- | 
[V:2] A4A4 | 
[V:3] z8 | 
[V:4] z8 | 
[V:5] A,,3B,,C,2D,2- | 
[V:1] FGABc2A2 | 
[V:2] F2F3GAF | 
[V:3] z8 | 
[V:4] z8 | 
[V:5] D,2C,B,,A,,4 | 
[V:1] _B3AF2A2- | 
[V:2] G2_B2A2F2 | 
[V:3] d4d4 | 
[V:4] z8 | 
[V:5] G,,4D,4 | 
[V:1] A2G3^FF2 | 
[V:2] c3BA4 | 
[V:3] e4d4 | 
[V:4] z8 | 
[V:5] C,4D,4 | 
[V:1] G8 | 
[V:2] G8 | 
[V:3] B4d4 | 
[V:4] G4G4 | 
[V:5] G,,8 | 
[V:1] z8 | 
[V:2] z8 | 
[V:3] c4B2e2- | 
[V:4] A4G4 | 
[V:5] z8 | 
[V:1] z8 | 
[V:2] z8 | 
[V:3] e2g3fe2- | 
[V:4] E4G4 | 
[V:5] z8 | 
[V:1] z8 | 
[V:2] z4E4 | 
[V:3] e2d2e4 | 
[V:4] F4E2A2- | 
[V:5] z4A,,4- | 
[V:1] z8 | 
[V:2] F4E2E2- | 
[V:3] z8 | 
[V:4] A2c3BA2- | 
[V:5] A,,4A,,4 | 
[V:1] z8 | 
[V:2] E2D2E2F2- | 
[V:3] z8 | 
[V:4] A2G2A4 | 
[V:5] B,,4A,,3B,, | 
[V:1] z8 | 
[V:2] F2EDE4 | 
[V:3] z8 | 
[V:4] z8 | 
[V:5] C,2D,4^C,2 | 
[V:1] F2G2A4 | 
[V:2] z2d2d2c2- | 
[V:3] z8 | 
[V:4] z8 | 
[V:5] D,3E,F,G,A,2- | 
[V:1] F2G2A4 | 
[V:2] c2B2A4 | 
[V:3] z8 | 
[V:4] z8 | 
[V:5] A,2G,4^F,2 | 
[V:1] B8 | 
[V:2] G3ABcd2- | 
[V:3] B2c2d4 | 
[V:4] z8 | 
[V:5] G,8- | 
[V:1] z4G4 | 
[V:2] d2c4B2 | 
[V:3] B2c2d4 | 
[V:4] z8 | 
[V:5] G,8 | 
[V:1] G4G4 | 
[V:2] c8- | 
[V:3] e8 | 
[V:4] E2F2G4 | 
[V:5] C,8- | 
[V:1] c6B2 | 
[V:2] c8 | 
[V:3] z4e4 | 
[V:4] E2F2G4 | 
[V:5] C,8 | 
[V:1] A2c3BA2- | 
[V:2] z8 | 
[V:3] f4e2e2 | 
[V:4] A8 | 
[V:5] z8 | 
[V:1] A2GFE4 | 
[V:2] z8 | 
[V:3] e2d2d2^c2 | 
[V:4] z4A4 | 
[V:5] z8 | 
[V:1] D8 | 
[V:2] F4F2F2 | 
[V:3] d8 | 
[V:4] _B4A2A2 | 
[V:5] D,4D,2D,2 | 
[V:1] z8 | 
[V:2] E2D2C2C2 | 
[V:3] z8 | 
[V:4] A2G2G2^F2 | 
[V:5] C,2B,,2A,,2A,,2 | 
[V:1] z8 | 
[V:2] D8- | 
[V:3] d4d2d2 | 
[V:4] G8 | 
[V:5] G,,8- | 
[V:1] z8 | 
[V:2] D8 | 
[V:3] d2d2d2d2 | 
[V:4] z8 | 
[V:5] G,,8 | 
[V:1] z8 | 
[V:2] z8 | 
[V:3] d4e4 | 
[V:4] G4G2G2 | 
[V:5] z8 | 
[V:1] z8 | 
[V:2] z8 | 
[V:3] d2c2B4- | 
[V:4] G2G2G2G2 | 
[V:5] z8 | 
[V:1] z8 | 
[V:2] z8 | 
[V:3] B4c4 | 
[V:4] G4A4 | 
[V:5] z8 | 
[V:1] z8 | 
[V:2] z8 | 
[V:3] B2d2c2B2- | 
[V:4] G2F2E4- | 
[V:5] z8 | 
[V:1] z4A4 | 
[V:2] z8 | 
[V:3] B2e4d2 | 
[V:4] E4F4 | 
[V:5] z8 | 
[V:1] G4c4- | 
[V:2] z8 | 
[V:3] e4z4 | 
[V:4] E2G2F2E2- | 
[V:5] z4A,,4 | 
[V:1] c2A2d4 | 
[V:2] z4D4 | 
[V:3] z8 | 
[V:4] E2A4^G2 | 
[V:5] A,,4B,,4 | 
[V:1] c2A3GE2 | 
[V:2] E2F3EA2- | 
[V:3] z8 | 
[V:4] A4z4 | 
[V:5] A,,2D,4C,2 | 
[V:1] F2G2A4 | 
[V:2] A2G3^F^F2 | 
[V:3] z8 | 
[V:4] z8 | 
[V:5] D,2B,,2A,,4 | 
[V:1] B4B4 | 
[V:2] G4G4 | 
[V:3] d8 | 
[V:4] z8 | 
[V:5] G,,8 | 
[V:1] B4B4 | 
[V:2] G4G4 | 
[V:3] d4d4 | 
[V:4] z8 | 
[V:5] G,,8 | 
[V:1] G4d4 | 
[V:2] D8 | 
[V:3] d4B4 | 
[V:4] G8 | 
[V:5] G,,4G,,4 | 
[V:1] d2B4G2- | 
[V:2] D4D4 | 
[V:3] d4d4 | 
[V:4] G4G4 | 
[V:5] G,,8 | 
[V:1] G2G2A2c2- | 
[V:2] C2E3FG2- | 
[V:3] e8 | 
[V:4] G4E4 | 
[V:5] C,8 | 
[V:1] c2B4G2- | 
[V:2] G2FED4 | 
[V:3] d8- | 
[V:4] G4G4 | 
[V:5] G,,4G,,4 | 
[V:1] G2^FEF4 | 
[V:2] z4A4 | 
[V:3] d8 | 
[V:4] A8 | 
[V:5] D,8 | 
[V:1] G8 | 
[V:2] B4d4- | 
[V:3] z8 | 
[V:4] G8- | 
[V:5] G,,8 | 
[V:1] z8 | 
[V:2] d2d2d4 | 
[V:3] z8 | 
[V:4] G8 | 
[V:5] z4G,4 | 
[V:1] z8 | 
[V:2] z2c2B2d2- | 
[V:3] z8 | 
[V:4] z8 | 
[V:5] E,4G,4- | 
[V:1] z4B4 | 
[V:2] dcBAB4 | 
[V:3] z8 | 
[V:4] z8 | 
[V:5] G,2G,2G,2G,2 | 
[V:1] c4B2A2 | 
[V:2] A4z4 | 
[V:3] z8 | 
[V:4] z8 | 
[V:5] A,4G,2F,2 | 
[V:1] G4F4 | 
[V:2] G4A4 | 
[V:3] z8 | 
[V:4] z8 | 
[V:5] E,4D,2F,2 | 
[V:1] z4G3A | 
[V:2] G2F2E4 | 
[V:3] z4e4 | 
[V:4] z8 | 
[V:5] E,2D,3C,C,2 | 
[V:1] B2A4G2- | 
[V:2] D4z4 | 
[V:3] f6e2- | 
[V:4] z8 | 
[V:5] D,4z4 | 
[V:1] GFEDE4 | 
[V:2] z8 | 
[V:3] e2d4^c2 | 
[V:4] z4A4 | 
[V:5] z8 | 
[V:1] D2D2D2C2- | 
[V:2] z8 | 
[V:3] d4z4 | 
[V:4] _B6A2- | 
[V:5] z8 | 
[V:1] CB,A,G,A,4 | 
[V:2] z8 | 
[V:3] z8 | 
[V:4] A2G4^F2 | 
[V:5] z8 | 
[V:1] G,4z4 | 
[V:2] z4G2G2 | 
[V:3] d2d2d2d2 | 
[V:4] G4z4 | 
[V:5] z8 | 
[V:1] z4G2G2 | 
[V:2] G2G2B4 | 
[V:3] d2d2d4 | 
[V:4] z8 | 
[V:5] G,2G,2G,2G,2 | 
[V:1] G2G2G4- | 
[V:2] c6B2 | 
[V:3] e4c2d2 | 
[V:4] G2G2G2G2 | 
[V:5] C,3D,E,C,G,2- | 
[V:1] G2G2G2G2 | 
[V:2] B4z2E2 | 
[V:3] e2d4^c2 | 
[V:4] G2G2G4 | 
[V:5] G,F,E,D,E,4 | 
[V:1] F2F4ED | 
[V:2] F3GA2B2 | 
[V:3] d8 | 
[V:4] A4F2G2 | 
[V:5] D,6C,B,, | 
[V:1] C2D2z2A2 | 
[V:2] E2D2E2F2 | 
[V:3] z8 | 
[V:4] A2G4^F2 | 
[V:5] A,,2B,,2C,2D,2 | 
[V:1] B2c2d4 | 
[V:2] D8 | 
[V:3] z8 | 
[V:4] G8 | 
[V:5] G,,8 | 
[V:1] z2A2B2c2 | 
[V:2] D4z2A2 | 
[V:3] z8 | 
[V:4] z8 | 
[V:5] z8 | 
[V:1] d2cBA2c2 | 
[V:2] B2c2d2A2 | 
[V:3] z8 | 
[V:4] z8 | 
[V:5] z8 | 
[V:1] B2A3Bc2- | 
[V:2] B2c2d2cB | 
[V:3] z8 | 
[V:4] z8 | 
[V:5] z8 | 
[V:1] c2BAG2A2 | 
[V:2] A2c4BA | 
[V:3] z4c2c2 | 
[V:4] z8 | 
[V:5] z8 | 
[V:1] B2A4^G2 | 
[V:2] G2A2B4 | 
[V:3] B2c2d4 | 
[V:4] z8 | 
[V:5] z8 | 
[V:1] A8 | 
[V:2] A8 | 
[V:3] e4z4 | 
[V:4] z4F2F2 | 
[V:5] z4D,2D,2 | 
[V:1] z8 | 
[V:2] z8 | 
[V:3] z8 | 
[V:4] E2F2G4 | 
[V:5] C,2D,2B,,4 | 
[V:1] z4E4 | 
[V:2] A8 | 
[V:3] z8 | 
[V:4] A4z4 | 
[V:5] A,,4A,,4 | 
[V:1] F4E2C2 | 
[V:2] A4A4 | 
[V:3] z4e4 | 
[V:4] z8 | 
[V:5] D,4A,,4 | 
[V:1] D2F3GE2- | 
[V:2] A4A4 | 
[V:3] f4e2c2 | 
[V:4] z8 | 
[V:5] D,2D,4A,,2 | 
[V:1] E2D4^C2 | 
[V:2] A8 | 
[V:3] d2f2e4 | 
[V:4] z4A4 | 
[V:5] D,4A,,4 | 
[V:1] D3EFGA2- | 
[V:2] F8 | 
[V:3] d8- | 
[V:4] _B4A2F2 | 
[V:5] D,8 | 
[V:1] A2G4^F2 | 
[V:2] z8 | 
[V:3] d8 | 
[V:4] G2_B2A4 | 
[V:5] z4D,2D,2 | 
[V:1] G8- | 
[V:2] z8 | 
[V:3] B2c2d2e2 | 
[V:4] G8- | 
[V:5] E,3D,B,,2C,2 | 
[V:1] G8 | 
[V:2] z8 | 
[V:3] d8 | 
[V:4] G8 | 
[V:5] G,,8 | 
[V:1] z8 | 
[V:2] z8 | 
[V:3] c3de3f | 
[V:4] E2F2G2A2 | 
[V:5] z8 | 
[V:1] z8 | 
[V:2] z8 | 
[V:3] g3fd2e2 | 
[V:4] G8 | 
[V:5] z8 | 
[V:1] z8 | 
[V:2] z8 | 
[V:3] A3Bcde2- | 
[V:4] F3GA3B | 
[V:5] z8 | 
[V:1] z4E4 | 
[V:2] z8 | 
[V:3] e2d4^c2 | 
[V:4] c3BG2A2 | 
[V:5] z8 | 
[V:1] F3GA3B | 
[V:2] F8 | 
[V:3] d8 | 
[V:4] D3EFGA2- | 
[V:5] z2D,4D,2 | 
[V:1] c8 | 
[V:2] E4C4 | 
[V:3] z8 | 
[V:4] A2G4^F2 | 
[V:5] C,B,,A,,G,,A,,4 | 
[V:1] B4z2G2- | 
[V:2] D8 | 
[V:3] z8 | 
[V:4] G8 | 
[V:5] G,,8- | 
[V:1] G2G2G2G2 | 
[V:2] z2G4G2 | 
[V:3] z8 | 
[V:4] z8 | 
[V:5] G,,8 | 
[V:1] G3FEFGF | 
[V:2] G2G2G4 | 
[V:3] z8 | 
[V:4] z8 | 
[V:5] z2C,4C,2 | 
[V:1] EDC4D2 | 
[V:2] A4G2F2 | 
[V:3] z8 | 
[V:4] z8 | 
[V:5] C,2C,2C,4- | 
[V:1] E4F2F2 | 
[V:2] E4D4 | 
[V:3] z8 | 
[V:4] z8 | 
[V:5] C,4D,4 | 
[V:1] E2D2C3D | 
[V:2] A8 | 
[V:3] z8 | 
[V:4] z8 | 
[V:5] C,2B,,2A,,4 | 
[V:1] D4z2D2 | 
[V:2] B8 | 
[V:3] z8 | 
[V:4] z8 | 
[V:5] G,,8 | 
[V:1] F3GA2B2 | 
[V:2] A4F4 | 
[V:3] z8 | 
[V:4] z8 | 
[V:5] D,8 | 
[V:1] c2BAG4 | 
[V:2] G4G4 | 
[V:3] z8 | 
[V:4] z8 | 
[V:5] E,8 | 
[V:1] F3GA2_B2 | 
[V:2] A2D2F3G | 
[V:3] z8 | 
[V:4] z8 | 
[V:5] D,4D,4 | 
[V:1] A2GFE2A2- | 
[V:2] A2B2c2BA | 
[V:3] z8 | 
[V:4] z8 | 
[V:5] D,2D,2C,2F,2- | 
[V:1] ABG4^F2 | 
[V:2] G2B2A4 | 
[V:3] [M:2/1]z8 | 
[V:4] z8 | 
[V:5] F,E,G,2D,4 | 
[V:1] [M:3/1]G8z4 | 
[V:2] [M:3/1]G4B4B4 | 
[V:3] d4d4d4 | 
[V:4] [M:3/1]z12 | 
[V:5] [M:3/1]G,,12 | 
[V:1] B4B4B4 | 
[V:2] B4d6c2 | 
[V:3] d8d4- | 
[V:4] [M:3/1]z12 | 
[V:5] z12 | 
[V:1] d6c2B2A2 | 
[V:2] B2A2G4B4 | 
[V:3] d4d8 | 
[V:4] G4G4G4 | 
[V:5] [M:3/1]G,,4G,,4G,,4 | 
[V:1] G8z4 | 
[V:2] c4c4G4 | 
[V:3] e8d4- | 
[V:4] G8G4- | 
[V:5] C,6B,,2B,,4 | 
[V:1] B4B4B4 | 
[V:2] d8e4 | 
[V:3] d4B8 | 
[V:4] G4G8 | 
[V:5] G,,8G,4 | 
[V:1] A4c6B2 | 
[V:2] f4f4e4 | 
[V:3] c8c4 | 
[V:4] A8G4- | 
[V:5] F,4F,4C,4 | 
[V:1] G6F2E2D2 | 
[V:2] d4e2d2c2B2 | 
[V:3] B8c4- | 
[V:4] G4E8 | 
[V:5] G,4G,,4A,,4- | 
[V:1] C4A4B4 | 
[V:2] A4A4F4 | 
[V:3] c4d8 | 
[V:4] F8F4 | 
[V:5] A,,4D,8 | 
[V:1] c8A4 | 
[V:2] G8z4 | 
[V:3] e4e4d4- | 
[V:4] E8F4- | 
[V:5] C,8D,4- | 
[V:1] B4G6F2 | 
[V:2] z12 | 
[V:3] d4^c8 | 
[V:4] F4G8 | 
[V:5] D,4E,8 | 
[V:1] F8G4- | 
[V:2] z12 | 
[V:3] d12 | 
[V:4] A4A4G4- | 
[V:5] D,8B,,4 | 
[V:1] G4A4A4 | 
[V:2] z12 | 
[V:3] z12 | 
[V:4] G4^F8 | 
[V:5] C,4A,,8 | 
[V:1] B12 | 
[V:2] d4e4d4 | 
[V:3] z12 | 
[V:4] G12 | 
[V:5] G,,8z4 | 
[V:1] z12 | 
[V:2] G12- | 
[V:3] d4e4d4 | 
[V:4] z12 | 
[V:5] G,,4C,4B,,4 | 
[V:1] z12 | 
[V:2] G12 | 
[V:3] B12 | 
[V:4] z12 | 
[V:5] G,,12 | 
[V:1] B4c4B4 | 
[V:2] z12 | 
[V:3] z12 | 
[V:4] G4A4G4 | 
[V:5] z12 | 
[V:1] G12 | 
[V:2] G4G4G4 | 
[V:3] B4B4B4 | 
[V:4] E12 | 
[V:5] z12 | 
[V:1] z12 | 
[V:2] A4F8 | 
[V:3] c4d6e2 | 
[V:4] z12 | 
[V:5] z12 | 
[V:1] G4G4c4 | 
[V:2] G4E4G4 | 
[V:3] e12 | 
[V:4] E4E4E4 | 
[V:5] C,4C,4C,4 | 
[V:1] A4d6c2 | 
[V:2] F4D8 | 
[V:3] z12 | 
[V:4] F4G6A2 | 
[V:5] D,4B,,8 | 
[V:1] c8c4 | 
[V:2] E4F4E4 | 
[V:3] c6d2e4 | 
[V:4] A12 | 
[V:5] A,,8z4 | 
[V:1] A6G2E4 | 
[V:2] A12- | 
[V:3] f4e6d2 | 
[V:4] z12 | 
[V:5] A,,6B,,2C,4 | 
[V:1] F6E2E4 | 
[V:2] A12 | 
[V:3] d8^c4 | 
[V:4] F6G2A4 | 
[V:5] D,4A,,8 | 
[V:1] D6C2A,4 | 
[V:2] z12 | 
[V:3] d12- | 
[V:4] _B4A6G2 | 
[V:5] D,6E,2F,4 | 
[V:1] B,6A,2A,4 | 
[V:2] z12 | 
[V:3] d12 | 
[V:4] G8^F4 | 
[V:5] G,4D,8 | 
[V:1] [M:2/1]B,8 | 
[V:2] [M:2/1]D4D4 | 
[V:3] [M:2/1]z4d4 | 
[V:4] [M:3/3]G8- | 
[V:5] [M:2/1]G,,8- | 
[V:1] z4B4 | 
[V:2] D4G2A2 | 
[V:3] d8 | 
[V:4] G8 | 
[V:5] G,,8 | 
[V:1] d6c2 | 
[V:2] B2c2d4 | 
[V:3] B8- | 
[V:4] [M:2/1]z4G4 | 
[V:5] z4G,4- | 
[V:1] B2A2G4- | 
[V:2] e8- | 
[V:3] B8 | 
[V:4] G8 | 
[V:5] G,2F,2E,2D,2 | 
[V:1] G4A4- | 
[V:2] e8- | 
[V:3] c8 | 
[V:4] E8- | 
[V:5] C,2B,,2A,,4 | 
[V:1] A2GFG4 | 
[V:2] e8 | 
[V:3] B8 | 
[V:4] E8 | 
[V:5] z8 | 
[V:1] A4D4- | 
[V:2] z4A4- | 
[V:3] A8 | 
[V:4] F8 | 
[V:5] D,4D,4 | 
[V:1] D2^CB,C4 | 
[V:2] A4A4 | 
[V:3] e8 | 
[V:4] E8 | 
[V:5] A,,8 | 
[V:1] D8 | 
[V:2] F3GA2B2 | 
[V:3] f8 | 
[V:4] D8 | 
[V:5] z4D,4 | 
[V:1] z4c4 | 
[V:2] c4C4 | 
[V:3] e4e4 | 
[V:4] A8 | 
[V:5] C,3B,,A,,4 | 
[V:1] d8 | 
[V:2] G8 | 
[V:3] z8 | 
[V:4] _B8 | 
[V:5] G,,8 | 
[V:1] c3BA2G2 | 
[V:2] E4C4 | 
[V:3] e8 | 
[V:4] A4A4 | 
[V:5] A,,8 | 
[V:1] F2E2D4 | 
[V:2] D3EF2G2 | 
[V:3] d8 | 
[V:4] z8 | 
[V:5] _B,,8 | 
[V:1] E4F4- | 
[V:2] C8 | 
[V:3] c8- | 
[V:4] A8 | 
[V:5] A,,4F,,4 | 
[V:1] F2EDE4 | 
[V:2] z4E4 | 
[V:3] c8 | 
[V:4] G8 | 
[V:5] C,8 | 
[V:1] z2A4A2- | 
[V:2] D4d2d2- | 
[V:3] A8- | 
[V:4] F8- | 
[V:5] D,8- | 
[V:1] A2G2FEF2 | 
[V:2] dcB2A4 | 
[V:3] A8 | 
[V:4] F8 | 
[V:5] D,8 | 
[V:1] G8 | 
[V:2] G2D2G3A | 
[V:3] B4d4- | 
[V:4] D8- | 
[V:5] G,,8- | 
[V:1] G4G4- | 
[V:2] B2c2d4 | 
[V:3] d2c2B2A2 | 
[V:4] D8 | 
[V:5] G,,8 | 
[V:1] G2E2E4 | 
[V:2] c8 | 
[V:3] G6A2 | 
[V:4] E4G4- | 
[V:5] C,6B,,A,, | 
[V:1] z8 | 
[V:2] B3AG2F2 | 
[V:3] B8 | 
[V:4] G2F2E2D2 | 
[V:5] G,,4G,,4 | 
[V:1] z4E4- | 
[V:2] E6F2 | 
[V:3] c8 | 
[V:4] C6D2 | 
[V:5] A,,8 | 
[V:1] E4G4 | 
[V:2] G4E4 | 
[V:3] B4e4- | 
[V:4] E8 | 
[V:5] z4C,4 | 
[V:1] F6ED | 
[V:2] A8- | 
[V:3] e4d4 | 
[V:4] F8 | 
[V:5] D,8 | 
[V:1] C4C4 | 
[V:2] A8 | 
[V:3] e8 | 
[V:4] E4A4- | 
[V:5] A,,4C,4 | 
[V:1] D8 | 
[V:2] z4D4 | 
[V:3] d4B4 | 
[V:4] A4^G4 | 
[V:5] B,,8 | 
[V:1] C2F2E2F2 | 
[V:2] E2F2C3D | 
[V:3] c8 | 
[V:4] A8 | 
[V:5] A,,8 | 
[V:1] G4G2E2- | 
[V:2] E3FG4 | 
[V:3] B8 | 
[V:4] G4E4 | 
[V:5] E,,8 | 
[V:1] E2DCD4 | 
[V:2] A8 | 
[V:3] z8 | 
[V:4] F8 | 
[V:5] z8 | 
[V:1] E8 | 
[V:2] G6F2 | 
[V:3] z4B4 | 
[V:4] E8- | 
[V:5] z4E,,4 | 
[V:1] E8- | 
[V:2] E2D2C4 | 
[V:3] c4A4 | 
[V:4] E8- | 
[V:5] A,,8 | 
[V:1] E8 |]  
[V:2] B,8 |]  
[V:3] B8 |]  
[V:4] E8 |]  
[V:5] E,,8 |]  



